X:14
T:Ladies Wattle. HSJJ.014
T:Torryburn Lasses,aka. HSJJ.014
M:4/4
L:1/8
Q:1/2=100
S:HSJ Jackson,Wyresdale,Lancs.1823
R:.Reel
O:England
A:Lancashire
N:M.S. has the B strain repeated,but this would seem superfluous in view
N:of the D strain, so I have not indicated a repeat.C.G.P..
H:1823
Z:vmp.Chris Partington.
K:G
“^A”G2BG BddB|cBcd efg2|G2BG Bdge|dcBG~A2G2|!
|”^B”g2ag/a/ bggd|edef gdBG”*”|\
|”^C”g2ag/a/ bggd|edcBB2A2|!
|”^D”bgaf gfed|egfa gdBG|GBAc Bdge|dcBG~A2G2|]

